X:156
T:Elfin Waltzes #4. Le4.156
Q:3/4=50
L:1/4
B:L.Leadley MS#4 c1850
Z:vmp.Mike Hicken 2016 www.village-music-project.org.uk
M:3/4
K:A
!f!A,|._B, .=B, .=C|.^C .D .^D|E2z|zze!segno!|:!p!(c'2b)|(a2e)|(g2f)|
(d'2c')|(c'2b)|(f2g)|(b2a)|eze|(c'2b)|(a2e)|(g2f)|(d'2c')|
(c'2b)|(f2g)|a3-|1 aze:|2azz|:!f! [Bg]z/[B/b/][Bb]|[Bg]z/[B/b/][Bb]|
g (a/g/f/e/)|(^^c/^d/) .B .B|!f![Bg]z/[B/b/] [Bb]|[Bg]z/[B/b/] [Bb]|g (a/g/f/e/)|(^e/f/) BB|
[Bg]z/[B/b/] [Bb]|[Bg]z/[B/b/] [Bb]|[Bg] zz/>[e/b/]|[e2b2] z/>[e/=d'/]|[e2d'2]z|zze "_D.C."!segno!|]

